X:1
T:Non mi toglie
T:Severin Cornet
T:Source : La fleur des chansons à 3---Louvain---P.Phalèse---1574. Editor : André Vierendeels (03/09/18) Notes : Original clefs : G2, C2, C3 Original note values have been halved Editorial accidentals above the staff
T:Non mi toglie
T:©
T:©
T:©
T:©
T:©
C:Severin Cornet
Z:©
%%score [ 1 2 3 ]
L:1/8
Q:1/4=120
M:2/2
K:F
V:1 treble nm="Soprano" snm="S"
V:2 treble nm="Alto" snm="A"
V:3 treble-8 nm="Tenor" snm="T"
V:1
 c4 A2 d2 | c2 A2 G4 | FcAB c2 c2 | B4 A2 z c- | cc f3 e2 d | eede f4 | e4 z c2 A | d2 c3 BcA | %8
w: Non mi to-|glie'il ben mi-|o, non mi to- glie'il ben|mi- o, chi|_ non ar- de d'a-|mor, co- me fac- cio'i-|o, chi non|ar- de d'a- mor co-|
 G2 F2 G4 | c2 f2 d3 e- | e f3/2e/4d/4e f4 | z2 c3 d e2 | de f2 z2 de | f2 ef g2 z c | BA d4 d2 | %15
w: me fac- cio'i-|o, co- me fac-|* cio'i- * * * o,|ma per- che|non fia mai, ma per-|che non fia mai, se|nul' o po- co,|
 z d _e2 c2 d2 | _e2 d4 c2 | z d2 B B3 G | A2 BA GA B2- | B2 AG A2 A2 | z2 A2 A2 f2 | e2 A3 A d2 | %22
w: a- gua- gl'il mio|gran fo- co,|se non e' in|giust' a- * * * mo-|* * * * re,|io sol ha-|vro del- la mia|
 c2 d2 B2 B2- | B2 AG A2 z A | A2 f2 e2 f2- | ff f2 e2 e2 | d4 e4 | z2 c2 A2 d2 | c2 A2 G4 | %29
w: donn' il cuo- re,|_ _ _ _ io|sol ha- vro del-|* le mia donn' il|cuo- re,|dun- que las-|s'il ben mi-|
 FcAB c2 c2 | B4 A2 z c- | cc f3 e2 d | eede f4 | e4 z c2 A | d2 c3 BcA | G2 F2 G4 | c2 f2 d3 e- | %37
w: o, dun- que las- s'il ben|mi- o, chi|_ non ar- de d'a-|mor co- me fac- cio'i-|o, chi non|ar- de d'a- mor co-|me fac- cio'i-|o, co- me fac-|
 e f3/2e/4d/4e f3 e/d/ | cB c2 z2 A2 | G2 F2 G4 | A8 |] %41
w: * cio'i- * * * o, _ _|_ _ _ co-|me fac- cio'i-|o.|
V:2
 z8 | F6 E2 | A2 F2 E2 F2- | FE/D/ E2 F2 F2- | FE A2 FGAB | GA B4 A2 | z2 G3 E A2 | FG A3 F2 E | %8
w: |Non mi|to- glie'il ben mi-|* * * * o, chi|_ non ar- de co- me fac-|cio'i- * * o,|chi non ar-|de co- me fac- cio'i-|
 E2 F3 E/D/ E2 | F4 z2 B2 | GF G2 A4 | F3 G A2 GA | B2 z A2 A B2 | AF G4 A2 | GF A2 B2 z B | %15
w: |o, co-|me fac- cio'i- o,|ma per- che non fia|mai, ma per- che|non fia mai, se|nul' o po- co, a-|
 B2 G2 A2 B2 | G/F/G/A/ B3 A/G/ A2 | B4 z2 G2- | GF F2 CC G2- | G2 F2 z2 F2 | F2 D2 D2 A2- | %21
w: gua- gl'il mio gran|fo- * * * * * * *|co, se|_ non e'in giust' a- mo-|* re, io|sol ha- vro del-|
 AA F2 F3 G | A2 B2 G4 | F2 z F F2 D2 | D2 A3 A A2 | B4 G2 c2- | c =BBA/B/ c3 B/A/ | GF G2 F4 | %28
w: * la mia donn' _|_ il cuo-|re, io sol ha-|vro del- la mia|donn' il cuo-||* * * re,|
 z2 F4 E2 | A2 F2 E2 F2- | FE/D/ E2 F2 F2- | FE A2 FGAB | GA B4 A2 | z2 G3 E A2 | FG A3 F2 E | %35
w: dun- que|las- s'il ben mi-|* * * * o, chi|_ non ar- de d'a- mor co-|me fac- cio'i- o,|chi non ar-|do d'a- mor co- me|
 E2 F3 E/D/ E2 | F4 z2 B2 | GF G2 A4 | z2 F4 D2 | E2 F3 E/D/ E2 | F8 |] %41
w: fac- cio'i- * * *|o, co-|me fac- cio'i- o,|co- me|fac- cio'i- * * *|o.|
V:3
 z8 | z4 c4 | A2 d2 c2 A2 | G4 F4 | c2 A d2 c2 B | ccGG d4 | c2 z c2 c f2 | de f3 dAA | %8
w: |Non|mi to- glie'il ben|mi- o,|chi non ar- de d'a-|mor co- me fac- cio'i-|o, chi non ar-|de d'a- mor co- me fac-|
 c2 d2 z2 c2 | AA d2 G2 g2 | cd c2 f4 | z2 A3 B c2 | GG d4 Bc | d2 c3 c f2 | z2 d2 BG g2 | %15
w: cio'i- o, co-|me fac- cio'i- o, co-|me fac- cio'i- o,|ma per- che|non fia mai, ma per-|che non fia mai,|se nul' o po-|
 g2 z c f2 d2 | c2 B2 f2 f2 | z2 g3 _e e2 | d2 B2 _e4 | d8 | z2 f2 f2 d2 | ^c2 d3 d B2 | %22
w: co, a- gua- gl'il|mio gran fo- co,|se non e'in|giust' a- mo-|re,|io sol ha-|vro del- la mia|
 f2 d2 _e4 | d4 z2 f2 | f2 d2 ^c2 d2- | dd B2 c2 c2 | f4 c2 A2 | c4 d3 c/B/ | AG A2 z2 c2 | %29
w: donn' il cuo-|re, io|sol ha- vro del-|* la mia donn' il|cuo- re, il|cuo- * * *|* * re, dun-|
 A2 d2 c2 A2 | G4 F4 | c2 A d2 c2 B | ccGG d4 | c2 z c2 c f2 | de f3 dAA | c2 d2 z2 c2 | %36
w: que las- s'il ben|mi- o,|chi non ar- de d'a-|mor co- me fac- cio'i-|o, chi non ar-|do d'a- mor co- me fac-|cio'i- o, co-|
 AA d2 G2 g2 | cd c2 f4- | f4 z2 f2 | c2 d2 c4 | F8 |] %41
w: me fac- ciio'i- o, co-|me fac cio'i- o,|_ co-|me fac- cio'i-||

